**kern	**kern	**dynam
*part1	*part1	*part1
*staff2	*staff1	*staff1
*IPiano	*IPiano	*IPiano
*clefF4	*clefG2	*clefG2
*k[f#c#g#d#a#e#]	*k[f#c#g#d#a#e#]	*k[f#c#g#d#a#e#]
*M6/8	*M6/8	*M6/8
=1	=1	=1
!Tempo Marking: Lent	!Tempo Marking: Lent	!Tempo Marking: Lent
*	*^	*
8r	4r	8r	.
(>16B'LL 16dn	.	(<16e#'LL 16g#	pp
16B' 16d	.	16e#' 16g#	.
16B' 16d	8r	16e#' 16g#	.
16B'JJ 16d	.	16f#'JJ 16a#	.
8B'L 8d	8r	8e#'L 8g#	.
8G#' 8B	8r	8dn' 8en	.
*	*8va	*	*
[8B~J) [8d	(>32gggnLLL	[8ffn~J) [8ggn	ppp
.	32aaa-	.	.
.	32ggg	.	.
.	32ggg-JJJ	.	.
=2	=2	=2	=2
*	*8ba	*	*
*^	*	*	*
*	*	*	*^	*
2.BB] 2.D]	2.CCC#	32fffnLLL	2.ff] 2.gg]	8r	.
.	.	32ggg-	.	.	.
.	.	32fff	.	.	.
.	.	32dddn	.	.	.
.	.	32ccc#	.	8rA	.
.	.	32cccn	.	.	.
.	.	32bb	.	.	.
.	.	32aa-	.	.	.
*	*X8ba	*X8va	*	*	*
!	!	!	!	!Expression: un peu en dehors	!
.	.	32ggn	.	(<8B'\ 8b	.
.	.	32aa-X	.	.	.
.	.	32gg	.	.	.
.	.	32gg-XJJJ	.	.	.
.	.	32ffnLLL	.	8Fn'\L 8fn	.
.	.	32gg-	.	.	.
.	.	32ff	.	.	.
.	.	32ddn	.	.	.
.	.	32cc#X	.	8Gn'\ 8gn	.
.	.	32ccn	.	.	.
.	.	32b	.	.	.
.	.	32a-X	.	.	.
.	.	32gn	.	8BB'\J) 8B	.
.	.	32f	.	.	.
.	.	32fn	.	.	.
.	.	32dnJJJ)	.	.	.
*	*	*v	*v	*v	*
=3	=3	=3	=3
(>4E# 4G# 4B	8r	(4c#~	<
*	*8ba	*	*
.	4CCC#~	.	.
*clefG2	*	*	*
8Dn) 8Fn 8A- 8B-	.	8ddn) 8ffn 8aa- 8bb-	[
*clefF4	*	*	*
(>4EE# 4GG#	8r	(4c#~	pp<
.	4CCC#~	.	.
*clefG2	*	*	*
8D) 8F 8A- 8B-	.	8dd) 8ff 8aa- 8bb-	[
*v	*v	*	*
*X8ba	*	*
=4	=4	=4
(<16E#LL 16G# 16B 16c#	8r	pp<
16dnJ 16fn 16a- 16b-	.	.
8.cn 8.e- 8.g- 8.a-	8r	.
.	16r	.
16dnJk) 16fn 16a-X 16b-X	16ddn' 16ffn 16aa-X 16bb-X	[
(<16E#XLL 16G#X 16Bn 16c#X	8r	pp
16d 16f 16a- 16b-	.	.
16cn 16e- 16g- 16a-	16r	.
16d 16f 16a- 16b-	16dd' 16ff 16aa- 16bb-	>
16A#X 16c#X 16en 16f#X	16r	.
16AnJJ) 16cn 16e-X 16fn	16an' 16ccn 16ee-X 16ffn	.
=5	=5	=5
*^	*	*
*	*^	*	*
*clefF4	*	*	*	*
*	*	*8ba	*	*
2.EE# 2.GG# 2.BB 2.C#	8r	2.CCC#\	8r	]pp
*	*	*X8ba	*8va	*
.	8r	.	(>32gggnLLL	.
.	.	.	32aaa-	.
.	.	.	32ggg	.
.	.	.	32ggg-	.
*clefG2	*	*	*	*
.	(<8B' 8b	.	32fffn	.
.	.	.	32ggg-	.
.	.	.	32fff	.
.	.	.	32dddnJJJ)	.
.	8Fn'L 8fn	.	(>32ccc#LLL	.
.	.	.	32cccn	.
.	.	.	32bb	.
.	.	.	32aa-	.
*	*	*	*X8va	*
.	8Gn' 8gn	.	32ggn	.
.	.	.	32aa-	.
.	.	.	32gg	.
.	.	.	32gg-	.
.	8BB'J) 8B	.	32ffn	.
.	.	.	32gg-	.
.	.	.	32ff	.
.	.	.	32ddnJJJ)	.
*v	*v	*v	*	*
=6	=6	=6
*clefF4	*	*
*8ba	*	*
*^	*	*
4.ryy	2.CCC#	(<32cc#LLL	.
.	.	32ccn	.
.	.	32b	.
.	.	32a-	.
.	.	32gn	.
.	.	32a-	.
.	.	32g	.
.	.	32g-	.
.	.	32fn	.
.	.	32g-	.
.	.	32f	.
.	.	32dnJJJ)	.
*	*X8ba	*	*
(>32c#XLLL	.	8ryy	.
32cn	.	.	.
32B	.	.	.
32A-	.	.	.
32Gn	.	4ryy	.
32F#	.	.	.
32Fn	.	.	.
32Dn	.	.	.
32BB	.	.	.
32GGn	.	.	.
32FF#	.	.	.
32EEnJJJ)	.	.	.
*v	*v	*	*
=7	=7	=7
*8ba	*	*
*	*^	*
[4DDD# [4DD#	8r	8r	.
.	(>16ff#'LL 16aa# 16ddd# 16fff#	(<16d#'LL 16f# 16a# 16dd#	pp
.	16ff#' 16aa# 16ddd# 16fff#	16d#' 16f# 16a# 16dd#	.
8DDD#] 8DD#]	16ff#' 16aa# 16ddd# 16fff#	16d#' 16f# 16a# 16dd#	.
.	16ggn'JJ 16bb 16eeen 16gggn	16en'JJ 16gn 16b 16een	.
*	*v	*v	*
*X8ba	*	*
*	*^	*
8r	8ff#'L 8aa# 8ddd# 8fff#	8d#'L 8f# 8a# 8dd#	.
4r	8ddn' 8ffn 8bb- 8dddn	8B-' 8dn 8fn 8b-	<
.	[8ee'J) [8gg#X [8ccc# [8eeen	[8c#'J) [8e [8g#X [8cc#	[
=8	=8	=8	=8
!Expression: m.d.	!	!	!
*^	*	*	*
*	*^	*	*	*
4.GG# 4.C#	4.CCC# 4.CC#	4.ryy	4.ee] 4.gg#] 4.ccc#] 4.eee]	4.c#] 4.e] 4.g#] 4.cc#]	pp>
!Expression: m.d.	!	!	!	!	!
[4.FFn [4.BB-	[4.BBBB- [4.BBB-	8ryy	8r	8r	.
!	!	!	!	!	!Dynamic Expression: piu
.	.	[4Fn/ [4B- [4dn [4fn	4ddn~ 4ffn 4bb- 4dddn	4ryy	]pp
*v	*v	*v	*	*	*
*	*v	*v	*
=9||	=9||	=9||
*k[b-e-]	*k[b-e-]	*k[b-e-]
*M3/8	*M3/8	*M3/8
*^	*	*
*	*^	*	*
4.FF_ 4.BB-_	4.BBBB-_ 4.BBB-_	8F/] 8B-] 8d] 8f]	4.r	.
!	!	!Expression: marque	!	!
.	.	[4F~/ [4B- [4d [4f	.	p
=10||	=10||	=10||	=10||	=10||
*M6/8	*M6/8	*M6/8	*M6/8	*M6/8
!Tempo Marking: Un peu anime	!Tempo Marking: Un peu anime	!Tempo Marking: Un peu anime	!Tempo Marking: Un peu anime	!Tempo Marking: Un peu anime
!	!	!	!Expression: leger	!
8FF] 8BB-]	8BBBB-] 8BBB-]	(>8..F/L] 8..B-] 8..d] 8..f]	4.ryy	.
2ryy	2ryy	.	.	.
.	.	32d-'/KL) 32en 32g	.	pp
.	.	(>16F~/ 16B- 16d- 16f	.	.
.	.	16d-'/JJ) 16e 16a	.	.
.	.	(>16F~/LL 16B- 16d- 16f	8ryy	.
.	.	16d-'/J) 16e 16g 16cc	.	.
.	.	8F~/ 8B- 8d- 8f	16r	.
.	.	.	(>64dddnLLLL	<
.	.	.	64aa	.
.	.	.	64ff	.
.	.	.	64ddJJJJ)	.
*clefG2	*	*	*	*
8ryy	8ryy	(>16e-/L 16f 16a 16ee-	16ryy	[pp>
*clefF4	*	*	*	*
.	.	[16F/JJ)	16ryy	.
*	*v	*v	*	*
=11	=11	=11	=11
*8ba	*	*	*
!	!Expression: m.d.	!	!
4BBBB-	(>8..FFL] 8..BB- 8..D 8..F	4.ryy	]
*X8ba	*	*	*
.	32d-'KL) 32en 32g	.	.
2ryy	(>16F~ 16B- 16d- 16f	.	.
.	16d-'JJ) 16e 16a	.	.
.	(>16F~LL 16B- 16d- 16f	8ryy	.
.	16d-'J) 16e 16g 16cc	.	.
.	8F~ 8B- 8d- 8f	16r	.
.	.	(>64dddnLLLL	<
.	.	64aa	.
.	.	64ff	.
.	.	64ddJJJJ)	.
*clefG2	*	*	*
.	(>16e-XL 16f 16a 16ee-X	16ryy	[pp>
*clefF4	*	*	*
.	[16FJJ)	16ryy	.
=12	=12	=12	=12
8ryy	4.F]	16r	]
!	!	!	!Dynamic Expression: piu
.	.	(>64dddLLLL	pp
.	.	64aa	.
.	.	64ff	.
.	.	64ddJJJJ)	.
*clefG2	*	*	*
(>16e-LL 16f 16a 16ee-	.	4ryy	.
*clefF4	*	*	*
[16FJ)	.	.	.
(>8FJ]	.	.	.
4E-)	8ryy	8ryy	.
.	.	32qqE#X/LLL	<
.	.	32qqG#X/	.
.	.	32qqBn/	.
.	.	32qqd#X/	.
.	.	32qqe#X/	.
.	.	32qqg#X/	.
.	.	32qqbn/	.
.	.	32qqdd#X/	.
.	.	32qqgg#X/	.
.	.	[32qqbbn/JJJ	.
.	4ryy	(>8dd#L 8bb] 8ddd#X	[
[8d~	.	[8dd#~J) [8bb [8ddd#	.
=13||	=13||	=13||	=13||
*k[f#c#g#d#a#e#]	*k[f#c#g#d#a#e#]	*k[f#c#g#d#a#e#]	*k[f#c#g#d#a#e#]
!Tempo Marking: au Mouvt	!Tempo Marking: au Mouvt	!Tempo Marking: au Mouvt	!Tempo Marking: au Mouvt
*	*	*^	*
!	!	!	!	!Dynamic Marking: piu
(>4d]	4.E# 4.G# 4.B	4bb] 4ddd#]	4.dd#]	pp
8en	.	8ddn 8dddn	.	.
8.e#XL	4.G# 4.B 4.c#	8.cc#L 8.ccc#	4.gg#	.
16f#L	.	16b#XL 16bb#X	.	.
16e#	.	16cc# 16ccc#	.	.
16enJJ	.	16cc##XJJ 16ccc##X	.	.
=14	=14	=14	=14	=14
4E# 4G# 4B 4d#	4ryy	4dd# 4bb 4ddd#	2.ryy	.
*clefG2	*	*	*	*
*	*	*8va	*	*
4g#	2B 2dn 2e#	4aa# 4dddn 4aaa#	.	<
4a#)	.	4ee# 4aa# 4eee#	.	.
*	*	*v	*v	*
=15	=15	=15	=15
*M3/8	*M3/8	*M3/8	*M3/8
(>4b	4.An 4.d#X 4.f#	(>4gg# 4bb 4ggg#	[>
8b#X)	.	8ff#) 8bb#X 8fff#	.
*	*	*X8va	*
=16||	=16||	=16||	=16||
*clefF4	*	*	*
*M6/8	*M6/8	*M6/8	*M6/8
*	*	*^	*
*	*	*	*^	*
*	*	*	*	*^	*
(>4E#	8r	[4.cc# [4.ccc#	(<8ff##XL	(<8.f##X\L	4B\ 4c#	]pp
*	*8ba	*	*	*	*	*
.	[4CCC#	.	16gg#L	.	.	.
.	.	.	16gg#	16g#\L	.	.
8F#	.	.	16ggn	16g#\	[8B\ [8c#	.
.	.	.	16ggJJ	16gn\JJ	.	.
8F##XL	4.CCC#]	8cc#] 8ccc#]	16ff#XLL	16g\LL	8B\] 8c#]	.
.	.	.	16ff#	16f#X\	.	.
*	*X8ba	*	*	*	*	*
8G#	.	4cc# 4ccc#	16ee#	16f#\	4B\ 4c#	.
.	.	.	16ee#	16e#\	.	.
8AnJ)	.	.	16ff#	16e#\	.	.
.	.	.	16ff#JJ)	16f#\JJ)	.	.
=17	=17	=17	=17	=17	=17	=17
(>4E#	8r	8r	(<8.ff##XL	(<8.f##X\L	4B\ 4c#	.
*	*8ba	*	*	*	*	*
.	4CCC#	4cc#~ 4ccc#	.	.	.	.
.	.	.	16gg#L	16g#\L	.	.
8F#)	.	.	16gg#	16g#\	8B\ 8c#	.
.	.	.	16ff##JJ)	16f##\JJ)	.	.
*	*X8ba	*	*	*	*	*
(>4E#	8r	8r	(<8.ff##L	(<8.f##\L	4B\ 4c#	.
*	*8ba	*	*	*	*	*
.	4CCC#	4cc# 4ccc#	.	.	.	.
.	.	.	16gg#L	16g#\L	.	.
8F#)	.	.	16ff##	16g#\	8B\ 8c#	.
.	.	.	16gg#JJ)	16f##\JJ)	.	.
*	*X8ba	*	*	*	*	*
=18	=18	=18	=18	=18	=18	=18
(>4E#	8r	[4.cc# [4.ccc#	(<8.gg##XL	(<8.g##X\L	4B\ 4c#	.
*	*8ba	*	*	*	*	*
.	[4CCC#	.	.	.	.	.
.	.	.	16aa#L	16a#\L	.	.
8F#	.	.	16aa#	16a#\	[8B\ [8c#	.
.	.	.	16gg##JJ	16g##\JJ	.	.
4F##X	4.CCC#]	8cc#] 8ccc#]	16gg##LL	16g##\LL	8B\] 8c#]	.
.	.	.	16aa#	16a#\	.	.
.	.	4cc# 4ccc#	16aa#	16a#\	4B\ 4c#	.
.	.	.	16gg##	16g##\	.	.
*	*X8ba	*	*	*	*	*
8G#)	.	.	16gg##	16g##\	.	.
.	.	.	16gg#XJJ)	16g#X\JJ)	.	.
*v	*v	*	*	*	*	*
*	*	*	*v	*v	*
=19	=19	=19	=19	=19
2.An 2.B 2.dn	(>8.cc#L 8.ccc#	(<8ggnL	(<8gn\L	<
.	.	8een	8en\	.
.	16bL 16bb	.	.	.
.	16b 16bb	[8ggJ	[8g\J	.
.	16cc#JJ) 16ccc#	.	.	.
.	(>8.cc#L 8.ccc#	8ggL]	8g\L]	.
.	.	8ee	8e\	.
.	16bL 16bb	.	.	.
.	16b 16bb	8ee#XJ)	8e#X\J)	.
.	16cc#JJ) 16ccc#	.	.	.
*	*v	*v	*v	*
=20	=20	=20
*M9/8	*M9/8	*M9/8
!Tempo Marking: En animant peu a peu	!Tempo Marking: En animant peu a peu	!Tempo Marking: En animant peu a peu
*^	*	*
8r	4GGG# 4GG#	(>8.ff#L 8.dddn 8.fff#	[pp
(>16BBLL 16F#	.	.	.
16DnJ 16G#	.	16ee#L 16ccc# 16eee#	.
8F#'J) 8B	8r	16ee# 16ccc# 16eee#	.
.	.	16ff#JJ) 16ddd 16fff#	.
8r	4BBB 4BB	(>16ff#LL 16ddd 16fff#	.
.	.	16cc#) 16aa# 16ccc#	.
(>16DLL 16G#	.	(>16cc# 16aa# 16ccc#	.
16F#J 16B	.	16ddn 16bb 16ddd	.
8G#'J) 8dn	8r	16cc# 16aa# 16ccc#	.
.	.	16eenJJ) 16cccn 16eeen	.
16r	4DDn 4Dn	(>8.a#L 8.ff# 8.aa#	.
16G#LL	.	.	.
16B	.	.	.
16d	.	16bL 16ggn 16bb	.
16f#	8r	16a# 16ff# 16aa#	.
16fnJJ	.	16cc#XJJ) 16aan 16ccc#X	.
=21||	=21||	=21||	=21||
*M6/8	*M6/8	*M6/8	*M6/8
*	*^	*	*
(>4Dn 4F# 4cn	4.ryy	8r	(>8.enL 8.ccn 8.een	p<
.	.	[4GGG#/	.	.
.	.	.	16d#L 16b 16dd#	.
8D#X 8F##X 8c#X	.	.	16e 16cc 16ee	.
.	.	.	16d#JJ 16b 16dd#	.
4.En) 4.G# 4.dn	8r	8GGG#/]	8dnL 8b-X 8ddn	.
.	8r	4r	8g# 8ee 8gg#	.
.	(<16BB-LL	.	8f#J) 8dd 8ff#	.
.	16CnJJ)	.	.	.
*	*v	*v	*	*
=22	=22	=22	=22
(>4Dn 4F# 4cn	8r	(>8.enL 8.ccn 8.een	[p<
.	[4GGG#	.	.
.	.	16d#L 16b 16dd#	.
8D#X 8F##X 8c#X	.	16e 16cc 16ee	.
.	.	16d#JJ 16b 16dd#	.
8EnL 8G# 8dn	8GGG#]	8dnL 8b- 8ddn	.
8Fn 8An 8e-	8r	8an 8ffn 8aan	.
8F#XJ) 8A#X 8en	8r	8g#J) 8ee 8gg#	.
=23	=23	=23	=23
(>4Gn 4B 4fn	8r	(>8.gnL 8.ee- 8.ggn	[p
.	4GGG#X	.	.
.	.	16f#L 16ddn 16ff#	.
8G#X 8B#X 8f#X	.	16g 16ee- 16gg	.
.	.	16f#JJ 16dd 16ff#	.
4.An) 4.c# 4.gn	8r	8fn) 8cc# 8ffn	.
.	4GGGn 4GGn	(>8bL 8gg 8bb	<
.	.	8anJ) 8ff 8aan	.
=24	=24	=24	=24
*	*^	*	*
4B 4d# 4an	8r	4ryy	(>8dd#L 8bb 8ddd#	[<
.	4GGGn 4GGn	.	8cc#J) 8aan 8ccc#	.
*	*	*	*8va	*
(>8e#XL 8b	.	4c#\	(>8ggnL 8ddd# 8gggn	.
8cc#J)	8r	.	8ffnJ) 8ccc# 8fffn	.
!Tempo Marking: Cedez	!Tempo Marking: Cedez	!Tempo Marking: Cedez	!Tempo Marking: Cedez	!Tempo Marking: Cedez
(>8fnL 8an 8ccn 8ffn	4r	4r	(>8aan'L 8cccn 8fff 8aaan	[>
8cnJ) 8en 8gn 8cc	.	.	8gg'ZJ) 8ccc 8eeen 8gggn	.
*v	*v	*v	*	*
=25||	=25||	=25||
*k[b-e-a-]	*k[b-e-a-]	*k[b-e-a-]
*^	*^	*
!Tempo Marking: Mouvt du debut	!Tempo Marking: Mouvt du debut	!Tempo Marking: Mouvt du debut	!Tempo Marking: Mouvt du debut	!Tempo Marking: Mouvt du debut
!	!	!	!	!Dynamic Expression: subito
8r	(<8.EEE-L 8.BBB- 8.EE-	(>8.bb-L 8.eee- 8.ggg 8.bbb-	8r	]pp
(<8qc-/	.	.	(>8qccc-X\	.
8E-~) 8G 8B-	.	.	8ee-~) 8gg 8bb-	pp
.	16FFF-L) 16CC- 16FF-	16ccc-L) 16fff- 16aaa- 16cccc-	.	.
8r	(<16FFF- 16CC- 16FF-	(>16ccc- 16fff- 16aaa- 16cccc-	8r	.
.	16EEE-JJ) 16BBB- 16EE-	16bb-JJ) 16eee- 16ggg 16bbb-	.	.
8r	(<4EEE- 4BBB- 4EE-	(>4bb- 4eee- 4ggg 4bbb-	8r	<
(<8qcn/	.	.	(>8qcccn\	.
8E-) 8G 8B-	.	.	8ee-~) 8gg 8bb-	.
8r	8CCCn) 8GGG 8CCn	8gg) 8ccc 8eeen 8ggg	8r	.
=26	=26	=26	=26	=26
8r	(<4GGG 4DD 4GG	(>4ddd 4ggg 4bbbn 4dddd	8r	.
(<8qen/	.	.	(>8qeeen\	.
8G) 8Bn 8d	.	.	8gg) 8bbn 8ddd	.
8r	8AAA-) 8EE- 8AA-	8eee-X) 8aaa- 8cccc 8eeee-	8r	.
8r	(<4FFF 4CC 4FF	(>4ccc 4fff 4aaan 4cccc	8r	[>
(<8qdn/	.	.	(>8qdddn\	.
8F) 8An 8c	.	.	8ff) 8aan 8ccc	.
8r	8GGG-) 8DD- 8GG-	8ddd-) 8ggg- 8bbb-X 8dddd-	8r	.
=27	=27	=27	=27	=27
8r	(<8.EEE-L 8.BBB- 8.EE-	(>8.bb-L 8.eee- 8.gggn 8.bbb-	8r	]p
(<8qc-/	.	.	(>8qccc-\	.
8E-) 8G 8B-	.	.	8ee-) 8gg 8bb-	.
.	16FFF-L) 16CC- 16FF-	16ccc-L) 16fff- 16aaa- 16cccc-	.	.
8r	(<16FFF- 16CC- 16FF-	(>16ccc- 16fff- 16aaa- 16cccc-	8r	.
.	16EEE-JJ) 16BBB- 16EE-	16bb-JJ) 16eee- 16ggg 16bbb-	.	.
8r	(<4EEE- 4BBB- 4EE-	(>4bb- 4eee- 4ggg 4bbb-	8r	.
(<8qcn/	.	.	(>8qcccn\	.
8E-) 8G 8B-	.	.	8ee-) 8gg 8bb-	.
8r	8CCCn) 8GGG 8CCn	8gg) 8ccc 8eeen 8ggg	8r	.
*v	*v	*	*	*
*	*v	*v	*
*	*X8va	*
=28||	=28||	=28||
*k[]	*k[]	*k[]
!Tempo Marking: En animant	!Tempo Marking: En animant	!Tempo Marking: En animant
*	*8va	*
*^	*	*
*	*^	*	*
*	*	*^	*	*
*	*	*	*	*^	*
!	!	!	!	!	!	!Dynamic Expression: poco cresc.
4GGG 4DD 4GG	8r	16.r	16r.	8r	4ddd 4ggg 4dddd	.
!	!	!	!Expression: m.d.	!	!	!
.	.	(32DD	(32D	.	.	.
.	8r	4GG)	4G)	8r	.	.
8r	8D 8F 8G 8B 8d	.	.	8f 8g 8b 8dd 8gg	8ryy	.
4GGG 4DD 4GG	8r	16.r	16.r	8r	4ddd 4ggg 4dddd	.
*	*	*	*	*	*X8va	*
!	!	!	!Expression: m.d.	!	!	!
.	.	(32DD	(32D	.	.	.
.	8r	4GG)	4G)	8r	.	.
8r	[8D [8F [8G [8B [8d	.	.	[8f [8g [8b [8dd [8gg~	8ryy	.
*	*	*	*	*v	*v	*
*v	*v	*v	*v	*	*
=29	=29	=29
(>8DL] 8F] 8G] 8B] 8d]	(>8fL] 8g] 8b] 8dd] 8gg]	.
8F~ 8A- 8B- 8d 8f	8a-~ 8b- 8dd 8ff 8bb-	<
8G#~J 8Bn 8c# 8e# 8g#	8bn~J 8ee# 8gg# 8ccc#	.
8B~L 8d 8en 8g# 8b	8dd~L 8een 8gg# 8bbn 8eee	.
8G#~ 8B 8c# 8e# 8g#	8b~ 8ee# 8gg# 8ccc#	.
8An~J) 8cn 8d 8f# 8a	8ccn~J) 8dd 8ff# 8aan 8ddd	.
=30	=30	=30
*^	*	*
*	*^	*	*
(>4D 4F 4G 4B 4d	16.r	16.r	(>4f 4g 4b 4dd 4gg	[f<
!	!	!Expression: m.d.	!	!
.	(>32D	(<32DDD\ 32DD	.	.
.	4GG) 4G	4GGG\)	.	.
*clefG2	*	*	*	*
8f) 8a 8b 8dd	.	.	8aa) 8bb 8ddd 8fff	[
*clefF4	*	*	*	*
(>4D 4F 4G 4B 4d	16.r	16.r	(>4f 4g 4b 4dd 4gg	f<
.	(>32D	(<32DDD\ 32DD	.	.
!	!	!Expression: m.d.	!	!
.	4GG) 4G	4GGG\)	.	.
*clefG2	*	*	*	*
8f) 8a 8b 8dd	.	.	8aa) 8bb 8ddd 8fff	[
*v	*v	*v	*	*
=31	=31	=31
*clefF4	*	*
(>8D~L 8F 8G 8B 8d	(>8f~L 8g 8b 8dd 8gg	f<
8F~ 8A- 8B- 8d 8f	8a-~ 8b- 8dd 8ff 8bb-	.
8G#~J 8Bn 8c# 8e# 8g#	8bn~J 8ee# 8gg# 8ccc#	.
*clefG2	*	*
8B~L 8d 8en 8g#X 8b	8dd~L 8een 8gg# 8bbn 8eee	[>
*	*8va	*
8d~ 8fn 8gn 8b 8dd	8ff~ 8ggn 8bb 8ddd 8gggn	.
8f~J) 8a- 8b- 8dd 8ff	8aa-~J) 8bb- 8ddd 8fff 8bbb-	.
=32||	=32||	=32||
*clefF4	*	*
*k[f#c#g#d#a#e#]	*k[f#c#g#d#a#e#]	*k[f#c#g#d#a#e#]
!Tempo Marking: Mouvt	!Tempo Marking: Mouvt	!Tempo Marking: Mouvt
*	*^	*
*	*	*^	*
.	.	.	(<[32qqe#/LLL	]pp
.	.	.	32qqb/	.
.	.	.	32qqdd#/	.
.	.	.	32qqee#/	.
.	.	.	32qqgg#/	.
.	.	.	32qqbb/	.
.	.	.	[32qqddd#/JJJ	.
*^	*	*	*^	*
4d#	4.E#	(>4ddd# 4dddd#	4.ggg# 4.bbb	4ddd#/])	4.gg#\ 4.bb	.
8ryy	.	8dddn 8ddddn	.	8een/ 8eeen	.	.
.	.	.	.	(<32qqe#/LLL]	.	.
.	.	.	.	32qqcc#/	.	.
.	.	.	.	32qqee#X/	.	.
.	.	.	.	32qqgg#/	.	.
.	.	.	.	32qqbb/	.	.
.	.	.	.	[32qqccc#/	.	.
.	.	.	.	[32qqeee#X/JJJ	.	.
8.e#L	4.E#	8.ccc#L 8.cccc#	4.ggg# 4.bbb	8.eee#/L])	4.gg#\ 4.bb 4.ccc#	.
16f#L	.	16bb#XL 16bbb#X	.	16fff#/L	.	.
16e#X	.	16ccc#] 16cccc#	.	16eee#/	.	.
16enJJ	.	16ccc##XJJ) 16cccc##X	.	16eeen/JJ)	.	.
*v	*v	*	*	*	*	*
*	*v	*v	*v	*v	*
*	*X8va	*
=33	=33	=33
*	*^	*
*	*8va	*	*
.	.	32qqE#\LLL	.
.	.	32qqB\	.
.	.	32qqd#\	.
.	.	32qqe#\	.
.	.	32qqg#\	.
.	.	32qqb\	.
.	.	[32qqdd#\JJJ	.
2.E#	4ddd# 4ggg# 4bbb 4dddd#	(<4d# 4dd#]	<
*	*X8va	*	*
.	4a# 4aa#	2ryy	.
.	4e#) 4ee#	.	.
=34	=34	=34	=34
*^	*	*	*
*	*^	*	*	*
*	*	*^	*	*	*
(>8.B#L	4.C# 4.F# 4.An	8r	8r	(>4g# 4gg#	(<8.b#L	[pp
.	.	[4FFF#/	4ryy	.	.	.
16c#L	.	.	.	.	16cc#L	.
16c#	.	.	.	8a# 8aa#	16cc#	.
16B#JJ)	.	.	.	.	16b#JJ)	.
(>16B#LL	4.Fn 4.Gn	8FFF#/]	8r	4.c#) 4.cc#	16b#LL	.
16BnJJ	.	.	.	.	16bnJJ	.
*clefG2	*	*	*	*	*	*
!	!	!	!Expression: m.d.	!	!	!
16BLL	.	4ryy	(<8fn'\L 8gn 8ggn	.	16bLL	.
16A#X	.	.	.	.	16a#X	.
16A#	.	.	8ffn'\J) 8gg 8gggn	.	16a#	.
16BJJ)	.	.	.	.	16bJJ	.
=35	=35	=35	=35	=35	=35	=35
*clefF4	*	*	*	*	*	*
(>8.B#L	4.C# 4.F#X 4.An	8r	8r	(>4g# 4gg#	(<8.b#L	.
.	.	[4FFF#/	4ryy	.	.	.
16c#L	.	.	.	.	16cc#L	>
16c#	.	.	.	8a# 8aa#	16cc#	.
16B#JJ)	.	.	.	.	16b#JJ)	.
(>16B#LL	4.Fn 4.Gn	8FFF#/]	8r	4.c#) 4.cc#	16b#LL	.
16BnJJ	.	.	.	.	16bnJJ	]
*clefG2	*	*	*	*	*	*
!	!	!	!Expression: m.d.	!	!	!
16BLL	.	4ryy	(<8fn'\L 8gn 8ggn	.	16bLL	.
16A#X	.	.	.	.	16a#X	.
16A#	.	.	8ffn'\J) 8gg 8gggn	.	16a#	.
[16BJJ)	.	.	.	.	[16bJJ	.
*v	*v	*v	*v	*	*	*
*	*v	*v	*
*clefF4	*	*
=36	=36	=36
(>8.BL]	(<8.bL]	.
16FnL	16fnL	>
16Gn	16gn	.
[16BBJJ	[16BJJ	.
8BBL]	8BL]	]
8FFn	8Fn	.
8GGnJ)	8GnJ)	.
=37	=37	=37
*	*^	*
*	*	*^	*
!	!	!	!	!Dynamic Expression: sempre
(<4.BBB 4.BB	8r	8r	8ryy	pp
.	4cc#~ 4ee# 4gg# 4ccc#	4e#~	4E#/ 4G# 4B 4d#	.
4.FFF#) 4.FF#	8ryy	(<32gnLLL	8ryy	.
.	.	32a-	.	.
.	.	32g	.	.
.	.	32g-	.	.
.	4ryy	32fn	4ryy	.
.	.	32g-	.	.
.	.	32f	.	.
.	.	32d#	.	.
.	.	32c#	.	.
.	.	32cn	.	.
.	.	32B	.	.
.	.	32A-JJJ)	.	.
=38	=38	=38	=38	=38
(<4.BBB 4.BB	8r	8r	8ryy	.
.	4cc#~ 4ee# 4gg# 4ccc#	4e#~	4E#/ 4G# 4B 4d#	.
4.FFF#) 4.FF#	(>32ggnLLL	8ryy	8ryy	.
.	32aan	.	.	.
.	32gg	.	.	.
.	32gg-	.	.	.
.	32ffn	4ryy	4ryy	.
.	32gg-	.	.	.
.	32ff	.	.	.
.	32ddn	.	.	.
.	32cc#	.	.	.
.	32ccn	.	.	.
.	32b	.	.	.
.	(>32gnJJJ	.	.	.
*	*v	*v	*v	*
=39	=39	=39
!Tempo Marking: Plus lent	!Tempo Marking: Plus lent	!Tempo Marking: Plus lent
*	*^	*
2.r	8.c#L) 8.f# 8.a#	8.ryy	.
.	16f#'L 16a#	16c#'LL	.
.	16f#' 16a#	16c#'	.
.	[16gn'JJ) [16b	[16dn'JJ)	.
.	(>8gL] 8b]	(<8dL]	.
.	8f# 8a#	8c#	.
.	8c#J) 8e#	8G#J)	.
=40	=40	=40	=40
*	*	*^	*
2.r	8r	(<4.en 4.g#	(>4.B/	.
.	4c#' 4cc#	.	.	.
.	8r	4.gn) 4.b	4.dn/)	.
.	4cc#' 4ccc#	.	.	.
*	*v	*v	*v	*
*clefG2	*	*
=41	=41	=41
*	*^	*
16r	4r	16r	.
(<16dnLL	.	(<16gnLL 16b	p<
16B	.	16en 16g#X	.
16cn	.	16fn 16an	.
16e-	8r	16a- 16ccn	[>
[16dJJ	.	[16gnJJ [16b	.
4d]	8r	4g] 4b]	]
*	*8va	*	*
.	4ccc#' 4cccc#	.	.
8gn)	.	8b) 8ddn	.
=42	=42	=42	=42
*^	*	*	*
(>16.cc#'LL 16.ff#	2.f#	4cccc#	(<16.ccc#'LL 16.fff#	pp
16.ccn' 16.ggn	.	.	16.cccn' 16.gggn	.
16.ddn' 16.aan	.	.	16.dddn' 16.aaan	.
.	.	2ryy	.	.
16.een'JJ) 16.bb	.	.	16.eeen'JJ) 16.bbb	.
(>16.ff#'LL	.	.	(<16.ccc#X'LL 16.fff#X 16.cccc#	.
16.cc' 16.gg	.	.	16.cccn' 16.ggg	.
16.dd' 16.aa	.	.	16.ddd' 16.aaa	.
16.ee'JJ) 16.bb	.	.	16.eee'JJ) 16.bbb	.
=43	=43	=43	=43	=43
(>16.cc#'LL 16.ff#	2.f#	4cccc#	(<16.ccc#'LL 16.fff#	.
16.ccn' 16.ggn	.	.	16.cccn' 16.gggn	.
16.ddn' 16.aan	.	.	16.dddn' 16.aaan	.
.	.	2ryy	.	.
16.een'JJ) 16.bb	.	.	16.eeen'JJ) 16.bbb	.
(>16.ff#'LL	.	.	(<16.ccc#X'LL 16.fff#X 16.cccc#	.
16.cc' 16.gg	.	.	16.cccn' 16.ggg	.
16.dd' 16.aa	.	.	16.ddd' 16.aaa	.
16.ee'JJ) 16.bb	.	.	16.eee'JJ) 16.bbb	.
*v	*v	*	*	*
*	*v	*v	*
*clefF4	*	*
=44	=44	=44
!	!Expression: (timbrez legerement la petite note	!
.	(<8qF#/ 8qgn	.
4r	4.c#~) 4.f# 4.a# 4.cc#	.
8r	.	.
.	(<8qF#/ 8qg	.
4r	[4.c#~) [4.f# [4.a# [4.cc#	.
(<8CC#	.	.
=45	=45	=45
*	*^	*
[4.FFF#)	4c#] 4f#] 4a#] 4cc#]	4ccc#' 4cccc#	.
*	*v	*v	*
*	*X8va	*
*	*^	*
.	2r	2r	.
8FFF#]	.	.	.
4r	.	.	.
*	*v	*v	*
==	==	==
*-	*-	*-
!!!system-decoration: {(s1,s2)}
!!!RDF**kern: > = above
!!!RDF**kern: < = below
!!!RDF**kern: Z = caesura
